X: 21251
Q: "Jocosely."
M: 6/8
L: 1/8
K: G
d |\
a>gf e>fg | d>ec B2G |\
a>gf e>fg | dec B2 |]
d |\
ecA Ace | "^^"e3 "^^"c3 |\
dBG GBd | "^^"d3 "^^"B3 |\
ecA Ac.e | a3 H"^^"f2(~f |\
g)dB cAF | G3 G2 |]


